!!!Genre:	Ot azoy
!!!Mode:	Minor
!!!Edition:	2015
!!!Listening/dance:	dance
!!!Free rhythm?:	No
!!!Secondary Modes:	9-16
!!!:	*G:frey
!!!One_Mode:	no
**kern
*I"P1
*clefG2
*k[b-e-]
*g:
*M2/4
*>A
=1
8gL
8dJ
4g
=2
8gL
8dJ
4g
=3
8gL
8b-
8a
8ccJ
=4
4b-
4b-
=5
8b-L
8fJ
4b-
=6
8b-L
8fJ
4b-
=7
8b-L
8ddJ
8ccL
16b-L
16aJJ
=8
4g
4g
=9:|!|:
*>B
*k[b-e-a-]
*>bM
*G:frey
8g
4bn
8bn
=10
8bn
(8qdd/
8ccJ)
16bLL
16a-
16g
16fJJ
=11
16enLL
16f
16g
16a-JJ
(16bnLL
16cc)
16b'
16a-'JJ
=12
(8bntL
8g)
(8bt
8gJ)
=13
8g
4bn
8b
=14
8bn
(8qdd/
8ccJ)
(16bLL
16a-)
16g
16fJJ
=15
(16enLL
16f)
16g'
16a-'JJ
(16bnLL
16cc)
16b'
16a-'JJ
=16
4g
4g
=:|!
*>eM
*-
